X:1
T:The Palace Waltz
T:The Palace Waltz
T:To Miss Emma Moore, By a Young American Composer
T:Anonymous
T:by IMSLP - Public Domain
C:Anonymous
Z:by IMSLP - Public Domain
%%score { ( 1 4 ) | ( 2 3 ) }
L:1/8
M:3/4
K:Bb
V:1 treble nm="Piano" snm="Pf."
V:4 treble 
V:2 bass 
V:3 bass 
V:1
!mf! (3(fgf) d2 b2 | b4 f2 | (3(ded) B2 f2 | f4 d2 | df e2 c2 | c2 g2 f2 | f2 gfef | d6 | %8
 (3(fgf) d2 b2 | b4 f2 | (3(ded) B2 g2 | g4 b2 | a2 bag^f | g2 c2 c'2 | f2 f2 a2 | f6 :: %16
 (3(fgf) d2 b2 | c6 |{/b} d'2{/f} b2{/d} f2 |{/B} d6 | (3(fgf) [ec']2 [ca]2 | [Af]6 | %22
 [eg]2 [df]2 [^c=e]2 | [df]6 | (3(efe) [=Bd]2 [ce]2 |1 [Bb]6!fine! :|2 [Bb]4 ||[K:Eb]!pp! b2 | %28
 b2 c'2 b2 | g4 e2 | [c'e']2 [=bd']2 [c'e']2 | [ac']4 [fa]2 | [df]2 [eg]2 [fa]2 | [ac']4 [gb]2 | %34
 [ca]2 [Bg]2 [=A^f]2 | [Bg]4 b2 | b2 c'bge | [ee']4 [dd']2 | [cc']2 [dd']2 [ee']2 | %39
 [ff']2 [ee']2 [ac']2 | [gb]4 [eg]2 | [fa]4 [db]2 | e2 e2 g2 | e6!D.C.! |] %44
V:2
 B,,6 | B,6 | B,,6 | B,6 | F,6 | F,6 | B,,6 | B,6 | B,,6 | B,6 | B,,6 | G,6 | C6 | %13
[K:bass] C,6[K:treble] | [FA]2 [FA]2 [Fc]2 | [FA]6 ::[K:bass] F,6 | F,,6 | B,,6 | B,6 | F,6 | F,6 | %22
 B,,6 | B,6 | F,6 |1 [B,D]2 B,,2 z2 :|2 [B,D]2 B,,2 ||[K:Eb] z2 | E,6 | E,6 | A,,6 | A,6 | B,,6 | %33
 B,6 | E,6 | G,2 [EG]2 B,2 | E,6 | G,6 | A,6 | A,,6 | B,,6 | B,,6 | E,6 | [E,G,]4 E,,2 |] %44
V:3
 x2 [DF]2 [DF]2 | x2 [DF]2 [DF]2 | x2 [DF]2 [DF]2 | x2 [DF]2 [DF]2 | x2 [CE]2 [CE]2 | %5
 x2 [A,E]2 [A,E]2 | x2 [DF]2 [DF]2 | x2 [DF]2 [DF]2 | x2 [DF]2 [DF]2 | x2 [DF]2 [DF]2 | %10
 x2 [B,D]2 [B,D]2 | x2 [B,D]2 [B,D]2 | x2 [FA]2 [FA]2 |[K:bass] x2[K:treble] [=EB]2 [EB]2 | x6 | %15
 x6 ::[K:bass] x2 [A,E]2 [A,E]2 | x2 [A,E]2 [A,E]2 | x2 [DF]2 [DF]2 | x2 [DF]2 [DF]2 | %20
 x2 [A,C]2 [A,C]2 | x2 [A,CF]2 [A,CF]2 | x2 [DF]2 [DF]2 | x2 [DF]2 [DF]2 | x2 [A,CF]2 [A,CF]2 |1 %25
 x6 :|2 x4 ||[K:Eb] x2 | x2 [G,B,]2 [G,B,]2 | x2 [G,B,]2 [G,B,]2 | x2 [CE]2 [CE]2 | %31
 x2 [CF]2 [CF]2 | x2 [DF]2 [DF]2 | x2 [DF]2 [DF]2 | x2 [EG]2 [EG]2 | x6 | x2 [EG]2 [EG]2 | %37
 x2 [B,EG]2 [B,DG]2 | x2 [CE]2 [CE]2 | x2 [A,C]2 [A,C]2 | x2 [E,G,B,]2 [E,G,B,]2 | %41
 x2 [D,F,B,]2 [F,A,B,]2 | x2 [G,B,]2 [G,B,]2 | x6 |] %44
V:4
 x6 | x6 | x6 | x6 | x6 | x6 | x6 | x6 | x6 | x6 | x6 | x6 | x6 | x6 | x6 | x6 :: x6 | x4 f2 | x6 | %19
 x4 f2 | x6 | x4 [eg]2 | x6 | x6 | x6 |1 x6 :|2 x4 ||[K:Eb] x2 | x6 | x6 | x6 | x6 | x6 | x6 | x6 | %35
 x6 | x6 | x6 | x6 | x6 | x6 | x6 | x6 | x6 |] %44

